review/main/icons/illustrative/station/db_ic_il_db_ticket_vending_machine.svg

<svg id="icon" height="64" viewBox="0 0 64 64" width="64" xmlns="http://www.w3.org/2000/svg"><g fill="none" fill-rule="evenodd" transform="translate(11 8)"><path d="m38 10.5a1 1 0 0 1 .993.883l.007.117v31.523c-.007 2.677-2.076 4.866-4.674 4.973l-.212.004h-26.226c-2.628.007-4.766-2.112-4.883-4.763l-.005-.217v-31.52a1 1 0 0 1 1.993-.117l.007.117v31.518c.004 1.598 1.21 2.89 2.717 2.978l.169.004h26.23c1.526.004 2.787-1.231 2.879-2.804l.005-.176v-31.52a1 1 0 0 1 1-1zm-12 20.5a1 1 0 0 1 .117 1.993l-.117.007h-2.5a1 1 0 0 1 -.117-1.993l.117-.007zm0-19a3 3 0 0 1 2.995 2.824l.005.176v10a3 3 0 0 1 -2.824 2.995l-.176.005h-16a3 3 0 0 1 -2.995-2.824l-.005-.176v-10a3 3 0 0 1 2.824-2.995l.176-.005zm0 2h-16a1 1 0 0 0 -.993.883l-.007.117v10a1 1 0 0 0 .883.993l.117.007h16a1 1 0 0 0 .993-.883l.007-.117v-10a1 1 0 0 0 -.883-.993zm7 0a1 1 0 0 1 .993.883l.007.117v6a1 1 0 0 1 -1.993.117l-.007-.117v-6a1 1 0 0 1 1-1zm6-14a3 3 0 0 1 2.995 2.824l.005.176v3a3 3 0 0 1 -2.824 2.995l-.176.005h-36a3 3 0 0 1 -2.995-2.824l-.005-.176v-3a3 3 0 0 1 2.824-2.995l.176-.005zm0 2h-36a1 1 0 0 0 -.993.883l-.007.117v3a1 1 0 0 0 .883.993l.117.007h36a1 1 0 0 0 .993-.883l.007-.117v-3a1 1 0 0 0 -.883-.993z" fill="var(--db-icon-color, currentColor)" fill-rule="nonzero"/><path d="m20 31a1 1 0 0 1 .117 1.993l-.117.007h-10a1 1 0 0 1 -.117-1.993l.117-.007z" fill="var(--db-icon-pulse-color, #EC0016)"/></g></svg>

<svg id="icon" height="64" viewBox="0 0 64 64" width="64" xmlns="http://www.w3.org/2000/svg"><g fill="none" fill-rule="evenodd" transform="translate(11 8)"><path d="M38 10.5a1 1 0 0 1 .993.883L39 11.5v31.523c-.007 2.677-2.076 4.866-4.674 4.973l-.212.004H7.888c-2.628.007-4.766-2.112-4.883-4.763L3 43.02V11.5a1 1 0 0 1 1.993-.117L5 11.5v31.518c.004 1.598 1.21 2.89 2.717 2.978l.169.004h26.23c1.526.004 2.787-1.231 2.879-2.804L37 43.02V11.5a1 1 0 0 1 1-1ZM26 31a1 1 0 0 1 .117 1.993L26 33h-2.5a1 1 0 0 1-.117-1.993L23.5 31H26Zm0-19a3 3 0 0 1 2.995 2.824L29 15v10a3 3 0 0 1-2.824 2.995L26 28H10a3 3 0 0 1-2.995-2.824L7 25V15a3 3 0 0 1 2.824-2.995L10 12h16Zm0 2H10a1 1 0 0 0-.993.883L9 15v10a1 1 0 0 0 .883.993L10 26h16a1 1 0 0 0 .993-.883L27 25V15a1 1 0 0 0-.883-.993L26 14Zm7 0a1 1 0 0 1 .993.883L34 15v6a1 1 0 0 1-1.993.117L32 21v-6a1 1 0 0 1 1-1Zm6-14a3 3 0 0 1 2.995 2.824L42 3v3a3 3 0 0 1-2.824 2.995L39 9H3A3 3 0 0 1 .005 6.176L0 6V3A3 3 0 0 1 2.824.005L3 0h36Zm0 2H3a1 1 0 0 0-.993.883L2 3v3a1 1 0 0 0 .883.993L3 7h36a1 1 0 0 0 .993-.883L40 6V3a1 1 0 0 0-.883-.993L39 2Z" fill="var(--db-icon-color, currentColor)" fill-rule="nonzero"/><path d="M20 31a1 1 0 0 1 .117 1.993L20 33H10a1 1 0 0 1-.117-1.993L10 31h10Z" fill="var(--db-icon-pulse-color, #EC0016)"/></g></g></svg>
